X:1
T:2èmeGymnopèdie
T:Erik Satie
%%score { ( 1 3 ) | 2 }
L:1/8
Q:1/4=60
M:3/4
K:C
V:1 treble nm="Piano" snm="Pno."
V:3 treble 
V:2 bass 
V:1
"^Lent et triste""^."!pp! z2 [B,EG]4 | z2 [A,CFA]4 | z2 [B,EG]4 | z2 [A,CFA]4 |!p!!<(! (g6!<)! | %5
 a2 g2 f2 |!>(! e2 f2 g2!>)! | d6) | (g6 | a2 g2 f2 | e2 f2 g2 | d2 c4) | z2 [B,EG]4 | %13
 z2 [A,CFA]4 |!f!!<(! (c'6 | f2!<)! g2 a2 | g6 | c6 | f6- | f2 _e2 d2 | f6- | f2 g2 _b2 | %22
!>(! a2 g2 f2!>)! | g6 | f6) | z2!p! [_B,DG]4 | z2 [A,CFA]4 |!f!!<(! (c'6 | _a2 g2 f2!<)! | g6 | %30
 f6- | f2!>(! _e2 d2 | f6 | d6- | d2 _e2 _a2!>)! | _b6 | f6) | z2 [=B,=EG]4 | z2 [A,CFA]4 | %39
!p!!p!!<(! (g6!<)! | f2 g2 a2 |!>(! e2 f2 g2!>)! | d6) | (g6 | f2 g2 a2 |!>(! e2 f2 g2!>)! | %46
 f2 c4) | z2!pp! [B,EG]4 |[K:treble] z2 [A,CFA]4 |!f!!<(! c'6 | f2!<)! g2 a2 | g6 | c6 | f6 | %54
!>(! g6 | d6- | d6- | d6- | d4 f2!>)! | _b6 | a2 f4 |!>(! z2!pp! [_B,DG]4 | z2 [A,CFA]4 | %63
 z2 [_B,DG]4 | z2!>)!!ppp! [CEG]4 |] %65
V:2
 G,,6 | D,,6 | G,,6 | D,,6 | G,,6 | D,,6 | G,,6 | D,,6 | G,,6 | D,,6 | G,,6 | D,,6 | G,,6 | D,,6 | %14
 C,,6 | C,,6 | C,,6 | F,,6 | F,,6 | F,,6 | F,,6 | F,,6 | F,,6 | _B,,,6 | D,,6 | G,,6 | D,,6 | %27
 C,,6 | C,,6 | C,,6 | F,,6 | F,,6 | F,,6 | F,,6 | F,,6 | _B,,,6 | D,,6 | G,,6 | D,,6 | G,,6 | %40
 D,,6 | G,,6 | D,,6 | G,,6 | D,,6 | G,,6 | D,,6 | G,,6 |[K:bass] D,,6 | C,,6 | C,,6 | C,,6 | F,,6 | %53
 F,,6 | F,,6 | F,,6 | F,,6 | F,,6 | F,,6 | _B,,,6 | D,,6 | G,,6 | D,,6 | G,,6 | C,,6 |] %65
V:3
 x6 | x6 | x6 | x6 | x2 [B,EG]4 | x2 [A,CFA]4 | x2 [B,EG]4 | x2 [A,CFA]4 | x2 [B,EG]4 | %9
 x2 [A,CFA]4 | x2 [B,EG]4 | x2 [A,CFA]4 | x6 | x6 | x2 [CEAc]4 | x2 [A,CFA]4 | x2 [_B,_EG]4 | %17
 x2 [G,_B,_EG]4 | x2 [A,DF]4 | x2 [G,_B,_EF]4 | x2 [A,DF]4 | x2 [_B,DFG]4 | x2 [C_EA]4 | %23
 x2 [_B,DG]4 | x2 [A,CFA]4 | x6 | x6 | x2 [_EGc]4 | x2 [CF_Ac]4 | x2 [_B,DG_B]4 | x2 [=A,DF]4 | %31
 x2 [G,_B,_EF]4 | x2 [A,DF]4 | x2 [_B,DFG]4 | x2 [C_E_A]4 | x2 [_B,DG]4 | x2 [=A,CF=A]4 | x6 | x6 | %39
 x2 [B,EG]4 | x2 [A,CFA]4 | x2 [B,EG]4 | x2 [A,CFA]4 | x2 [B,EG]4 | x2 [A,CFA]4 | x2 [B,EG]4 | %46
 x2 [A,CFA]4 | x6 |[K:treble] x6 | x2 [CEAc]4 | x2 [A,CFA]4 | x2 [_B,_EG]4 | x2 [G,_B,_EG]4 | %53
 x2 [A,DF]4 | x2 [G,_B,_EG]4 | x2 [A,DF]4 | x2 [G,_B,DF]4 | x2 [G,_B,_EF]4 | x2 [A,DF]4 | %59
 z2 [_B,DG]4 | x2 [A,CFA]4 | x6 | x6 | x6 | x6 |] %65

